cssgg/assign.svg

<svg
  width="24"
  height="24"
  viewBox="0 0 24 24"
  fill="none"
  xmlns="http://www.w3.org/2000/svg"
>
  <path d="M6 6H10V4H4V10H6V6Z" fill="currentColor" />
  <path d="M10 18H6V14H4V20H10V18Z" fill="currentColor" />
  <path d="M14 6H18V10H20V4H14V6Z" fill="currentColor" />
  <path d="M14 18H18V14H20V20H14V18Z" fill="currentColor" />
  <path
    d="M12 8.5C10.067 8.5 8.5 10.067 8.5 12C8.5 13.933 10.067 15.5 12 15.5C13.933 15.5 15.5 13.933 15.5 12C15.5 10.067 13.933 8.5 12 8.5Z"
    fill="currentColor"
  />
</svg>

<svg viewBox="0 0 24 24" xmlns="http://www.w3.org/2000/svg"><g><path d="M6 6h4V4H4v6h2V6Z"/><path d="M10 18H6v-4H4v6h6v-2Z"/><path d="M14 6h4v4h2V4h-6v2Z"/><path d="M14 18h4v-4h2v6h-6v-2Z"/><path d="M12 8.5c-1.94 0-3.5 1.56-3.5 3.5 0 1.93 1.56 3.5 3.5 3.5 1.93 0 3.5-1.57 3.5-3.5 0-1.94-1.57-3.5-3.5-3.5Z"/></g></svg>
